X: 6732
T: Champaign Jig Goes To Columbia, The
R: jig
M: 6/8
K: Dmajor
de|:f3 dAF|ABd F2 E|FAd dcd|ecA gfe|
f3 dAF|ABd F2 E|EDf dAF|1 EDC Dde:|2 EDC DFA||
d3 afd|cBA ecA|BAG dBG|FED EFA|
f3 dAF|ABd F2 E|FDf dAF|1 EDC EFA:|2 FDC D3||

